X:1
T:Title
%%score 1 2 3 4
L:1/8
M:4/2
K:F
V:1 treble nm="Part_1"
V:2 treble-8 nm="Part_2"
V:3 treble-8 nm="Part_3"
V:4 bass nm="Part_4"
V:1
 z16 | z16 | G8 d8 | _e8 d8 | c8 B8 | c8 d8 | G8 B8 | A8 G4 (3:2:1A6- | (3:2:2A2 G4 G8 ^F4 | G16 || %10
 z8 B8 | c8 c8 | B8 c8 | d8 d8 | G8 z8 | d8 _e8 | d8 c8 | B8 c8 | d16- | d16 | d16 | d16 || z16 | %23
 z16 | d8 _e8 | d4 c2 B2 c8 | B16 | z8 c8 | d8 d8 | G8 z8 | B8 A8 | G6 A2 B4 (3:2:1A6- | %32
 (3:2:2A2 G4 G8 ^F4 | G16 || z16 | z16 | z16 | z16 | z16 | d8 d8 | B8 A8 | G2 A2 B2 c2 d2 e2 d4 | %42
 G4 c8 =B4 | c8 z4 c4 | B4 G8 F4 | G8 z8 | z16 | B8 A8 | G6 A2 B2 G2 A4- | A4 G4 G4 ^F4 | G16 |] %51
V:2
 g8 f4 (3:2:1d6- | (3:2:2d2 c4 c8 =B4 | c8 z8 | z4 G4 d8 | e4 f4 g4 d4 | _e8 d8 | z4 g4 f4 d4- | %7
 d2 e2 f4 _e4 f4 | g4 c4 d8 | d16 || f8 d8 | e8 c8 | z4 d4 c4 e4 | d4 f6 e2 d2 c2 | %14
 B6 c2 d2 e2 f4- | f4 e2 d2 g8- | g4 f4 e4 c4 | d8 c8 | z4 f4 d6 e2 | f8 B8 | z4 f4 d6 e2 | f16 || %22
 d8 _e8 | d4 c2 B2 c2 B2 A2 G2 | F4 B8 A4 | B4 G8 F4 | G8 z4 g4 | f4 _e2 d2 e8 | d12 B4- | %29
 B2 A2 G2 F2 G4 g4- | g4 f2 e2 ^f8 | g8 (3:2:2f8 e4 | d4 e4 d8 | d16 || z16 | z16 | z16 | z16 | %38
 z16 | d8 f8 | g8 d8 | g12 f4 | e4 c4 d8 | c8 _e8 | d12 c2 B2 | B8 z8 | z4 d4 c4 A4 | %47
 B2 c2 d2 e2 f8 | g12 f4- | f2 g2 _e4 d8 | d16 |] %51
V:3
 z16 | G8 d8 | _e8 d8 | c8 B8 | c8 d8 | G8 (B8 | c8) d8 | z4 d4 B4 c4 | (G8 A8) | G16 || F8 G8 | %11
 G8 F8 | G8 A8 | A8 D8 | z4 G4 A4 F4- | F2 G2 A2 B2 c4 G4 | B8 G4 A4 | B8 A8 | z4 A4 B8 | A8 G8 | %20
 F8 G8 | A16 || z16 | z16 | z16 | z16 | d8 _e8 | d4 c2 B2 c8 | B16 | z8 c8 | d8 d8 | G4 d8 c4 | %32
 B4 c4 A4 A4 | G16 || d8 d8 | B8 A8 | G2 A2 B2 c2 d2 e2 d4 | G4 c8 =B4 | c8 z4 c4 | B4 G4 d8 | %40
 G8 z8 | z16 | z16 | z16 | B8 A8 | G8 G4 (3:2:1A6- | (3:2:2A2 G4 G8 F4 | (G8 d8) | _e12 d4 | %49
 c4 B4 A8 | G16 |] %51
V:4
 G,,8 D,8 | _E,8 D,8 | C,8 B,,8 | C,8 G,,4 B,,4 | A,,8 G,,8 | C,8 B,,8 | _E,8 D,4 G,4- | %7
 G,4 F,4 G,4 F,4 | (_E,8 D,8) | G,,16 || B,,12 G,,4 | (3:2:2C,8 B,,4 A,,8 | G,,4 B,,4 A,,8 | %13
 D,8 z4 D,4 | _E,8 D,8 | z4 D,4 C,8 | B,,8 C,8 | G,,8 A,,8 | D,8 B,,6 C,2 | D,8 G,,8 | D,8 G,,8 | %21
 D,16 || z16 | D,8 _E,8 | D,4 C,2 B,,2 C,8 | B,,4 C,4 A,,8 | G,,16 | D,8 C,8 | G,8 D,4 (3:2:1G,6- | %29
 (3:2:2G,2 F,4 E,2 D,2 E,8 | D,16 | z4 G,4 D,4 F,4 | G,4 C,4 D,8 | G,,16 || D,8 F,8 | G,8 D,8 | %36
 G,12 F,4 | E,4 C,4 D,8 | z4 C,6 D,2 E,2 F,2 | (G,8 D,8) | z4 G,8 F,4 | G,8 E,4 F,4 | G,4 A,4 G,8 | %43
 z4 C,6 D,2 _E,2 F,2 | (G,8 D,8) | _E,12 D,4 | C,4 B,,4 A,,8 | G,,4 G,4 D,4 F,4 | C,8 z4 F,4- | %49
 F,2 E,2 G,4 D,8 | G,,16 |] %51

